icons/comet.svg

<svg
  width="24"
  height="24"
  viewBox="0 0 24 24"
  xmlns="http://www.w3.org/2000/svg"
  fill="none"
  stroke="currentColor"
  stroke-width="2"
  stroke-linecap="round"
  stroke-linejoin="round"
>
  <path d="M15.5 18.5l-3 1.5.5-3.5-2-2 3-.5 1.5-3 1.5 3 3 .5-2 2 .5 3.5-3-1.5z" />
  <path d="M4 4l7 7" />
  <path d="M9 4l3.5 3.5" />
  <path d="M4 9l3.5 3.5" />
</svg>

<svg width="24" height="24" viewBox="0 0 24 24" fill="none" xmlns="http://www.w3.org/2000/svg">
<path d="M15.5 18.5L12.5 20L13 16.5L11 14.5L14 14L15.5 11L17 14L20 14.5L18 16.5L18.5 20L15.5 18.5Z" stroke="white" stroke-width="2" stroke-linecap="round" stroke-linejoin="round"/>
<path d="M4 4L11 11" stroke="white" stroke-width="2" stroke-linecap="round" stroke-linejoin="round"/>
<path d="M9 4L12.5 7.5" stroke="white" stroke-width="2" stroke-linecap="round" stroke-linejoin="round"/>
<path d="M4 9L7.5 12.5" stroke="white" stroke-width="2" stroke-linecap="round" stroke-linejoin="round"/>
</svg>
